src/assets/icons/excel.svg

<?xml version="1.0" encoding="UTF-8" standalone="no"?>
<svg
   viewBox="0 0 50 50"
   fill="#5B5B5B"
   version="1.1"
   id="svg1"
   sodipodi:docname="excel.svg"
   inkscape:version="1.4.2 (f4327f4, 2025-05-13)"
   xmlns:inkscape="http://www.inkscape.org/namespaces/inkscape"
   xmlns:sodipodi="http://sodipodi.sourceforge.net/DTD/sodipodi-0.dtd"
   xmlns="http://www.w3.org/2000/svg"
   xmlns:svg="http://www.w3.org/2000/svg">
  <defs
     id="defs1" />
  <sodipodi:namedview
     id="namedview1"
     pagecolor="#ffffff"
     bordercolor="#000000"
     borderopacity="0.25"
     inkscape:showpageshadow="2"
     inkscape:pageopacity="0.0"
     inkscape:pagecheckerboard="0"
     inkscape:deskcolor="#d1d1d1"
     inkscape:zoom="16.74"
     inkscape:cx="24.970131"
     inkscape:cy="25"
     inkscape:window-width="1920"
     inkscape:window-height="1051"
     inkscape:window-x="-9"
     inkscape:window-y="-9"
     inkscape:window-maximized="1"
     inkscape:current-layer="svg1" />
  <path
     d="m 32,6 v 7 h 2 v 2 h -2 v 5 h 2 v 2 h -2 v 5 h 2 v 2 h -2 v 6 h 2 v 2 h -2 v 7 h 15 c 1.101563,0 2,-0.898437 2,-2 V 8 C 49,6.898438 48.101563,6 47,6 Z"
     style="fill:#4caf50;fill-opacity:1"
     id="path31" />
  <path
     d="m 29.03125,0.00976563 c -0.0719,-6.104e-5 -0.145508,0.0078125 -0.21875,0.02148437 l -28,5.3125 C 0.339844,5.433594 0,5.863281 0,6.34375 v 37.3125 c 0,0.480469 0.339844,0.910156 0.8125,1 l 28,5.3125 C 28.875,49.980469 28.9375,50 29,50 c 0.230469,0 0.445313,-0.07031 0.625,-0.21875 C 29.855469,49.589844 30,49.296875 30,49 V 1 C 30,0.703125 29.855469,0.410156 29.625,0.21875 29.452148,0.07519535 29.246948,0.00994874 29.03125,0.00976563 Z M 6.6875,15.6875 h 5.125 L 14.5,21.28125 c 0.210938,0.441406 0.398438,0.984375 0.5625,1.59375 h 0.03125 c 0.105469,-0.363281 0.308594,-0.933594 0.59375,-1.65625 l 2.96875,-5.53125 h 4.6875 l -5.59375,9.25 5.75,9.4375 h -4.96875 l -3.25,-6.09375 c -0.121094,-0.226562 -0.246094,-0.644531 -0.375,-1.25 H 14.875 c -0.0625,0.285156 -0.210937,0.730469 -0.4375,1.3125 l -3.25,6.03125 h -5 l 5.96875,-9.34375 z M 36,20 h 8 v 2 h -8 z m 0,7 h 8 v 2 h -8 z m 0,8 h 8 v 2 h -8 z"
     style="fill:#2e7d32;fill-opacity:1"
     id="path30" />
  <path
     d="m 36,13 v 2 h 8 v -2 z"
     style="fill:#ffffff"
     id="path29" />
  <path
     d="m 36,20 v 2 h 8 v -2 z"
     style="fill:#ffffff"
     id="path28" />
  <path
     d="m 36,27 v 2 h 8 v -2 z"
     style="fill:#ffffff"
     id="path27" />
  <path
     d="m 36,35 v 2 h 8 v -2 z"
     style="fill:#ffffff"
     id="path26" />
  <path
     d="M 6.6875,15.6875 12.15625,25.03125 6.1875,34.375 h 5 l 3.25,-6.03125 c 0.226563,-0.582031 0.375,-1.027344 0.4375,-1.3125 h 0.03125 c 0.128906,0.605469 0.253906,1.023438 0.375,1.25 l 3.25,6.09375 H 23.5 l -5.75,-9.4375 5.59375,-9.25 h -4.6875 l -2.96875,5.53125 c -0.285156,0.722656 -0.488281,1.292969 -0.59375,1.65625 H 15.0625 C 14.898438,22.265625 14.710938,21.722656 14.5,21.28125 L 11.8125,15.6875 Z"
     style="fill:#ffffff"
     id="path25" />
</svg>

<svg xmlns="http://www.w3.org/2000/svg" xmlns:xlink="http://www.w3.org/1999/xlink" viewBox="0 0 50 50" fill="#5B5B5B">
  <path d="M28.8125 0.03125L0.8125 5.34375C0.339844 5.433594 0 5.863281 0 6.34375L0 43.65625C0 44.136719 0.339844 44.566406 0.8125 44.65625L28.8125 49.96875C28.875 49.980469 28.9375 50 29 50C29.230469 50 29.445313 49.929688 29.625 49.78125C29.855469 49.589844 30 49.296875 30 49L30 1C30 0.703125 29.855469 0.410156 29.625 0.21875C29.394531 0.0273438 29.105469 -0.0234375 28.8125 0.03125 Z M 32 6L32 13L34 13L34 15L32 15L32 20L34 20L34 22L32 22L32 27L34 27L34 29L32 29L32 35L34 35L34 37L32 37L32 44L47 44C48.101563 44 49 43.101563 49 42L49 8C49 6.898438 48.101563 6 47 6 Z M 36 13L44 13L44 15L36 15 Z M 6.6875 15.6875L11.8125 15.6875L14.5 21.28125C14.710938 21.722656 14.898438 22.265625 15.0625 22.875L15.09375 22.875C15.199219 22.511719 15.402344 21.941406 15.6875 21.21875L18.65625 15.6875L23.34375 15.6875L17.75 24.9375L23.5 34.375L18.53125 34.375L15.28125 28.28125C15.160156 28.054688 15.035156 27.636719 14.90625 27.03125L14.875 27.03125C14.8125 27.316406 14.664063 27.761719 14.4375 28.34375L11.1875 34.375L6.1875 34.375L12.15625 25.03125 Z M 36 20L44 20L44 22L36 22 Z M 36 27L44 27L44 29L36 29 Z M 36 35L44 35L44 37L36 37Z" fill="#5B5B5B" />
</svg>
